<?xml version="1.0" encoding="UTF-8"?>
<map version="1.10" tiledversion="1.10.2" orientation="orthogonal" renderorder="right-down" width="30" height="20" tilewidth="8" tileheight="8" infinite="1" nextlayerid="5" nextobjectid="2">
 <tileset firstgid="1" source="../tsx/tiles.tsx"/>
 <tileset firstgid="300" source="../tsx/objects.tsx"/>
 <tileset firstgid="324" source="../tsx/terrain_edges.tsx"/>
 <layer id="1" name="Ground" width="30" height="20">
  <data encoding="csv">
   <chunk x="-48" y="-16" width="16" height="16">
0,0,0,0,0,0,0,0,0,0,0,0,0,0,0,0,
0,0,0,0,0,0,0,0,0,0,0,0,0,0,0,0,
0,0,0,0,0,0,0,0,0,0,0,0,0,0,0,0,
0,0,0,0,0,0,0,0,0,0,0,0,0,0,0,0,
0,0,0,0,0,0,0,0,0,0,0,0,0,0,0,0,
0,0,0,0,0,0,0,0,0,0,0,0,0,0,0,25,
0,0,0,0,0,0,0,0,0,0,0,0,0,0,25,25,
0,0,0,0,0,0,0,0,0,0,0,0,0,25,25,0,
0,0,0,0,0,0,0,0,0,0,0,0,25,25,25,25,
0,0,0,0,0,0,0,0,0,0,25,25,25,25,25,25,
0,0,0,0,0,0,25,25,25,25,0,0,0,0,0,25,
0,0,0,0,0,25,25,0,0,0,0,0,25,25,25,0,
0,0,0,0,0,25,0,0,0,0,25,25,0,0,0,0,
0,0,0,0,0,0,25,0,0,25,0,0,0,0,0,0,
0,0,0,0,0,0,0,25,25,25,25,25,0,0,0,0,
0,0,0,0,0,0,0,0,0,25,25,0,25,25,25,25
</chunk>
   <chunk x="-32" y="-16" width="16" height="16">
0,0,0,0,0,0,0,0,0,0,0,0,0,0,0,0,
0,0,0,0,0,0,0,0,0,0,0,0,0,0,0,0,
0,0,0,0,0,0,0,0,0,0,0,0,0,0,0,0,
0,0,0,0,0,25,25,25,25,25,25,25,25,0,0,0,
0,0,25,25,25,25,25,25,25,25,25,25,25,25,25,25,
25,25,0,0,0,0,0,25,25,25,25,0,0,0,0,0,
0,0,0,0,0,0,0,0,0,0,25,25,25,25,25,25,
0,0,0,0,0,0,0,25,25,25,0,0,0,0,0,0,
25,25,25,25,25,25,25,25,25,25,25,25,25,25,25,25,
25,25,25,25,25,25,25,25,25,25,25,25,25,25,25,25,
25,0,0,0,0,0,0,0,0,25,25,25,25,25,25,25,
0,0,0,25,25,25,25,25,25,0,0,0,0,0,0,0,
0,0,25,0,0,25,25,0,0,0,0,0,0,0,0,0,
0,0,25,25,0,25,25,0,0,0,0,0,0,0,0,0,
0,0,0,0,25,25,25,25,25,25,0,0,0,0,0,0,
25,25,25,25,25,0,0,25,25,0,25,25,25,25,25,25
</chunk>
   <chunk x="-16" y="-16" width="16" height="16">
0,0,0,0,0,0,0,0,0,0,0,0,0,0,0,0,
0,0,0,0,0,0,0,0,0,0,0,0,0,0,0,0,
0,0,0,0,0,0,0,0,0,0,0,0,0,0,0,0,
0,0,0,0,0,0,0,0,0,0,0,0,0,0,0,0,
25,25,25,25,25,25,0,0,0,0,0,0,0,0,0,0,
0,0,0,0,0,0,25,25,25,25,0,0,0,0,0,0,
25,25,25,25,25,25,25,25,25,0,25,25,25,25,25,25,
0,25,25,25,25,25,25,25,25,25,25,25,25,25,25,25,
25,25,25,25,25,25,25,25,25,25,25,25,25,25,25,25,
25,25,25,25,25,25,25,25,25,25,25,25,25,25,25,25,
25,25,25,25,25,25,25,0,0,0,0,0,0,0,0,0,
0,0,0,0,0,0,0,25,25,25,25,0,0,0,0,0,
0,25,25,25,25,25,25,25,25,25,25,25,25,25,25,25,
0,0,0,0,25,25,25,25,25,25,25,0,0,0,25,25,
0,0,0,0,0,0,0,0,0,0,0,25,25,25,25,0,
25,25,25,25,25,25,25,25,25,25,25,25,25,25,25,25
</chunk>
   <chunk x="0" y="-16" width="16" height="16">
0,0,0,0,0,0,0,0,0,0,0,0,0,0,0,0,
0,0,0,0,0,0,0,0,0,0,0,0,0,0,0,0,
0,0,0,0,0,0,0,0,0,0,0,0,0,0,0,0,
0,0,0,0,0,0,0,0,0,0,0,0,0,0,0,0,
0,0,0,0,0,0,0,0,0,0,0,0,0,0,0,0,
0,0,0,0,0,0,0,0,0,0,0,0,0,0,0,0,
25,25,0,0,0,0,0,0,0,0,0,0,0,0,0,0,
25,0,25,25,25,25,25,25,25,25,25,25,25,25,25,25,
25,25,25,25,25,25,25,25,25,25,25,25,25,25,25,25,
25,25,0,0,0,0,25,25,25,25,25,25,0,0,0,0,
0,25,25,25,25,25,25,25,25,25,25,25,0,0,0,0,
25,25,0,0,0,25,25,25,25,25,0,0,0,0,0,0,
25,25,25,25,25,0,0,0,0,0,0,0,0,0,0,0,
0,25,25,25,0,0,0,0,0,0,0,0,0,0,0,0,
0,0,0,0,25,25,25,25,0,0,0,0,0,0,0,0,
25,0,0,0,0,0,0,0,25,25,0,0,0,0,0,0
</chunk>
   <chunk x="16" y="-16" width="16" height="16">
0,0,0,0,0,0,0,0,0,0,0,0,0,0,0,0,
0,0,0,0,0,0,0,0,0,0,0,0,0,0,0,0,
0,0,0,0,0,0,0,0,0,0,0,0,0,0,0,0,
0,0,0,0,0,0,0,0,0,0,0,0,0,0,0,0,
0,0,0,0,0,0,0,0,0,0,0,0,0,0,0,0,
0,0,0,0,0,0,0,0,0,0,0,0,0,0,0,0,
0,0,0,0,0,0,0,0,0,0,0,0,0,0,0,0,
25,0,0,0,0,0,0,0,0,0,0,0,0,0,0,0,
25,25,0,0,0,0,0,0,0,0,0,0,0,0,0,0,
0,0,0,0,0,0,0,0,0,0,0,0,0,0,0,0,
0,0,0,0,0,0,0,0,0,0,0,0,0,0,0,0,
0,0,0,0,0,0,0,0,0,0,0,0,0,0,0,0,
0,0,0,0,0,0,0,0,0,0,0,0,0,0,0,0,
0,0,0,0,0,0,0,0,0,0,0,0,0,0,0,0,
0,0,0,0,0,0,0,0,0,0,0,0,0,0,0,0,
0,0,0,0,0,0,0,0,0,0,0,0,0,0,0,0
</chunk>
   <chunk x="-64" y="0" width="16" height="16">
0,0,0,0,0,0,0,0,0,0,0,0,0,0,0,0,
0,0,0,0,0,0,0,0,0,0,0,0,0,0,0,0,
0,0,0,0,0,0,0,0,0,0,0,0,0,0,0,0,
0,0,0,0,0,0,0,0,0,0,0,0,0,0,0,0,
0,0,0,0,0,0,0,0,0,0,0,0,0,0,0,0,
0,0,0,0,0,0,0,0,0,0,0,0,0,0,0,0,
0,0,0,0,0,0,0,0,0,0,0,0,0,0,0,0,
0,0,0,0,0,0,0,0,0,0,0,0,0,0,0,0,
0,0,0,0,0,0,0,0,0,0,0,0,0,0,0,0,
0,0,0,0,0,0,0,0,300,0,0,0,0,0,0,0,
0,0,0,0,0,0,0,0,0,0,0,0,0,0,0,0,
0,0,0,0,0,0,0,0,0,0,0,0,0,0,0,0,
0,0,0,0,0,0,0,0,0,0,0,0,0,0,0,0,
0,0,0,0,0,0,0,0,0,0,0,0,0,0,0,0,
0,0,0,0,0,0,0,0,0,0,0,0,0,0,0,0,
0,0,0,0,0,0,0,0,0,0,0,0,0,0,0,0
</chunk>
   <chunk x="-48" y="0" width="16" height="16">
0,0,0,0,0,0,0,0,0,0,25,25,0,0,0,0,
0,0,0,0,0,0,0,0,0,0,0,0,25,0,0,0,
0,0,0,0,0,0,0,0,0,0,0,0,0,25,25,0,
0,0,0,0,0,0,0,0,0,0,0,0,0,0,0,25,
0,0,0,0,0,0,0,0,0,0,0,0,0,0,0,0,
0,0,0,0,0,0,0,0,0,0,0,0,0,0,0,0,
0,0,0,0,0,0,0,0,0,0,0,0,0,0,0,0,
0,0,0,0,0,0,0,0,0,0,0,0,0,0,0,0,
0,0,0,0,0,0,0,0,0,0,0,0,0,0,0,0,
0,0,0,0,0,0,0,0,0,0,0,0,0,0,0,0,
0,0,0,0,0,0,0,0,0,0,0,0,0,0,0,0,
0,0,0,0,0,0,0,0,0,0,0,0,0,0,0,0,
0,0,0,0,0,0,0,0,0,0,0,0,0,0,0,0,
0,0,0,0,0,0,0,0,0,0,0,0,0,0,0,0,
0,0,0,0,0,0,0,0,0,0,0,0,0,0,0,0,
0,0,0,0,0,0,0,0,0,0,0,0,0,0,0,0
</chunk>
   <chunk x="-32" y="0" width="16" height="16">
0,0,0,0,0,25,25,25,25,25,25,25,25,25,25,25,
0,0,0,0,0,0,0,0,0,0,25,0,0,0,0,0,
0,0,0,0,0,0,0,0,0,0,0,25,0,0,0,0,
25,25,25,25,0,0,0,25,25,25,25,25,25,25,25,25,
0,0,25,25,25,25,25,0,0,0,0,0,25,0,0,0,
25,25,0,0,0,0,0,25,25,25,25,25,25,25,0,0,
25,25,0,0,0,0,0,0,0,0,0,0,0,0,25,25,
0,0,25,25,25,25,25,25,25,25,25,25,25,25,25,25,
0,0,0,0,0,0,0,0,0,0,0,0,0,0,0,25,
0,0,0,0,0,0,0,0,0,0,0,0,0,0,25,25,
0,0,0,0,0,0,0,0,0,0,0,0,0,0,0,25,
0,0,0,0,0,0,0,0,0,0,0,0,0,0,0,0,
0,0,0,0,0,0,0,0,0,0,0,0,0,0,0,0,
0,0,0,0,0,0,0,0,0,0,0,0,0,0,0,0,
0,0,0,0,0,0,0,0,0,0,0,0,0,0,0,0,
0,0,0,0,0,0,0,0,0,0,0,0,0,0,0,0
</chunk>
   <chunk x="-16" y="0" width="16" height="16">
25,25,25,25,25,25,25,25,25,25,25,25,25,25,25,25,
0,0,0,0,0,0,0,0,0,0,0,25,0,0,0,0,
0,0,0,0,0,0,0,0,0,0,0,25,0,0,0,0,
25,25,25,25,25,25,25,25,25,25,25,25,25,25,25,25,
0,0,0,0,0,0,0,0,0,0,0,25,0,0,0,0,
0,0,0,0,0,0,0,0,0,0,0,25,0,0,0,0,
25,25,25,25,25,25,25,25,25,25,25,25,25,25,25,25,
25,25,25,25,25,25,25,25,25,25,25,25,25,25,25,25,
25,25,25,25,25,25,25,25,25,25,25,25,25,0,0,0,
0,0,0,0,0,0,0,0,0,0,0,25,25,25,25,25,
25,25,0,0,0,0,0,0,0,0,0,0,0,0,0,25,
25,0,25,25,25,25,25,0,0,0,0,0,0,0,0,0,
25,0,0,0,0,0,0,25,25,25,25,25,25,25,25,25,
25,0,0,0,0,0,0,0,0,0,0,25,25,0,0,0,
25,0,25,25,25,25,25,25,25,25,25,25,25,25,25,0,
25,0,25,0,0,0,0,0,0,0,0,0,0,0,0,0
</chunk>
   <chunk x="0" y="0" width="16" height="16">
25,25,25,25,25,25,25,25,0,0,0,0,0,0,0,0,
0,0,0,0,0,0,0,0,0,0,0,0,0,0,0,0,
0,0,0,0,0,0,0,0,0,0,0,0,0,0,0,0,
25,25,25,25,25,25,25,25,25,25,25,25,0,0,0,0,
0,0,0,0,0,0,0,0,0,0,0,0,25,25,25,25,
0,0,0,0,0,0,0,0,0,0,0,0,0,0,0,0,
25,25,25,25,25,25,25,25,25,25,25,25,25,25,25,25,
25,25,25,25,25,25,25,25,0,0,0,0,0,0,0,0,
0,0,0,0,0,0,0,0,0,0,0,0,0,0,0,0,
0,0,0,0,0,0,0,0,0,0,0,0,0,0,0,0,
0,0,0,0,0,0,0,0,0,0,0,0,0,0,0,0,
25,25,0,0,0,0,0,0,0,0,0,0,0,0,0,0,
0,0,25,0,0,0,0,0,0,0,0,0,0,0,0,0,
0,0,0,25,25,0,0,0,0,0,0,0,0,0,0,0,
0,0,0,0,0,25,0,0,0,0,0,0,0,0,0,0,
0,0,0,0,0,0,25,25,25,0,0,0,0,0,0,0
</chunk>
   <chunk x="16" y="0" width="16" height="16">
0,0,0,0,0,0,0,0,0,0,0,0,0,0,0,0,
0,0,0,0,0,0,0,0,0,0,0,0,0,0,0,0,
0,0,0,0,0,0,0,0,0,0,0,0,0,0,0,0,
0,0,0,0,0,0,0,0,0,0,0,0,0,0,0,0,
25,25,0,0,0,0,0,0,0,0,0,0,0,0,0,0,
0,0,25,25,25,0,0,0,0,0,0,0,0,0,0,0,
25,25,25,25,0,0,0,0,0,0,0,0,0,0,0,0,
0,0,0,0,0,0,0,0,0,0,0,0,0,0,0,0,
0,0,0,0,0,0,0,0,0,0,0,0,0,0,0,0,
0,0,0,0,0,0,0,0,0,0,0,0,0,0,0,0,
0,0,0,0,0,0,0,0,0,0,0,0,0,0,0,0,
0,0,0,0,0,0,0,0,0,0,0,0,0,0,0,0,
0,0,0,0,0,0,0,0,0,0,0,0,0,0,0,0,
0,0,0,0,0,0,0,0,0,0,0,0,0,0,0,0,
0,0,0,0,0,0,0,0,0,0,0,0,0,0,0,0,
0,0,0,0,0,0,0,0,0,0,0,0,0,0,0,0
</chunk>
   <chunk x="-32" y="16" width="16" height="16">
0,0,0,0,0,0,0,0,0,0,0,0,0,0,0,0,
0,0,0,0,0,0,0,0,0,0,0,0,0,0,0,0,
0,0,0,0,0,0,0,0,0,0,0,0,0,0,0,25,
0,0,0,0,0,0,0,0,0,0,0,0,0,0,0,25,
0,0,0,0,0,0,0,0,0,0,0,0,0,0,0,0,
0,0,0,0,0,0,0,0,0,0,0,0,0,0,0,0,
0,0,0,0,0,0,0,0,0,0,0,0,0,0,0,0,
0,0,0,0,0,0,0,0,0,0,0,0,0,0,0,0,
0,0,0,0,0,0,0,0,0,0,0,0,0,0,0,0,
0,0,0,0,0,0,0,0,0,0,0,0,0,0,0,0,
0,0,0,0,0,0,0,0,0,0,0,0,0,0,0,0,
0,0,0,0,0,0,0,0,0,0,0,0,0,0,0,0,
0,0,0,0,0,0,0,0,0,0,0,0,0,0,0,0,
0,0,0,0,0,0,0,0,0,0,0,0,0,0,0,0,
0,0,0,0,0,0,0,0,0,0,0,0,0,0,0,0,
0,0,0,0,0,0,0,0,0,0,0,0,0,0,0,0
</chunk>
   <chunk x="-16" y="16" width="16" height="16">
25,0,0,25,0,0,0,0,0,0,0,0,0,0,0,25,
25,0,0,25,25,0,0,0,0,0,25,25,25,25,25,0,
25,0,0,0,25,0,0,25,25,25,0,0,0,0,0,0,
0,0,0,0,25,0,25,0,0,0,0,0,0,0,0,0,
25,25,25,25,25,25,25,25,25,0,0,0,0,0,0,0,
0,0,0,0,0,25,25,25,25,25,0,0,0,0,0,0,
0,0,0,0,0,0,25,25,25,25,25,25,25,25,25,25,
0,0,0,0,0,0,0,25,25,25,25,25,25,25,25,25,
0,0,0,0,0,0,0,0,0,0,0,0,0,0,0,0,
0,0,0,0,0,0,0,0,0,0,0,0,0,0,0,0,
0,0,0,0,0,0,0,0,0,0,0,0,0,0,0,0,
0,0,0,0,0,0,0,0,0,0,0,0,0,0,0,0,
0,0,0,0,0,0,0,0,0,0,0,0,0,0,0,0,
0,0,0,0,0,0,0,0,0,0,0,0,0,0,0,0,
0,0,0,0,0,0,0,0,0,0,0,0,0,0,0,0,
0,0,0,0,0,0,0,0,0,0,0,0,0,0,0,0
</chunk>
   <chunk x="0" y="16" width="16" height="16">
25,25,25,25,25,25,25,0,0,0,0,0,0,0,0,0,
0,0,0,0,0,0,25,0,0,0,0,0,0,0,0,0,
0,0,0,0,0,0,25,0,0,0,0,0,0,0,0,0,
0,0,0,0,0,0,25,0,0,0,0,0,0,0,0,0,
0,0,0,0,0,25,25,0,0,0,0,0,0,0,0,0,
0,0,0,0,25,25,0,0,0,0,0,0,0,0,0,0,
25,25,25,25,0,0,0,0,0,0,0,0,0,0,0,0,
25,25,0,0,0,0,0,0,0,0,0,0,0,0,0,0,
0,0,0,0,0,0,0,0,0,0,0,0,0,0,0,0,
0,0,0,0,0,0,0,0,0,0,0,0,0,0,0,0,
0,0,0,0,0,0,0,0,0,0,0,0,0,0,0,0,
0,0,0,0,0,0,0,0,0,0,0,0,0,0,0,0,
0,0,0,0,0,0,0,0,0,0,0,0,0,0,0,0,
0,0,0,0,0,0,0,0,0,0,0,0,0,0,0,0,
0,0,0,0,0,0,0,0,0,0,0,0,0,0,0,0,
0,0,0,0,0,0,0,0,0,0,0,0,0,0,0,0
</chunk>
  </data>
 </layer>
 <layer id="2" name="Plants &amp; Rocks" width="30" height="20">
  <data encoding="csv"/>
 </layer>
 <layer id="3" name="Roads" width="30" height="20">
  <data encoding="csv">
   <chunk x="-16" y="0" width="16" height="16">
0,0,0,0,0,0,0,0,0,0,0,0,0,0,0,0,
0,0,0,0,0,0,0,0,0,0,0,0,0,0,0,0,
0,0,0,0,0,0,0,0,0,0,0,0,0,0,0,0,
0,0,0,0,0,0,0,0,0,0,0,0,0,324,330,330,
0,0,0,0,0,0,0,0,0,0,0,0,324,335,0,0,
0,0,0,0,0,0,0,0,0,0,324,330,335,0,0,0,
0,0,0,0,0,0,0,0,0,324,335,0,0,0,0,0,
0,0,0,0,0,0,0,0,0,329,0,0,0,0,0,0,
0,0,0,0,0,0,0,0,0,329,0,0,0,0,0,0,
0,0,0,0,0,0,0,0,0,334,325,0,0,0,0,0,
0,0,0,0,0,0,0,0,0,0,329,0,0,0,0,0,
0,0,0,0,0,0,0,0,0,0,334,325,0,0,0,0,
0,0,0,0,0,0,0,0,0,0,0,329,0,0,0,0,
0,0,0,0,0,0,0,0,0,0,0,334,325,0,0,0,
0,0,0,0,0,0,0,0,0,0,0,0,334,325,0,0,
0,0,0,0,0,0,0,0,0,0,0,0,0,329,0,0
</chunk>
   <chunk x="0" y="0" width="16" height="16">
0,0,0,0,0,0,0,0,0,0,0,0,0,0,0,0,
0,0,0,0,324,330,330,330,330,330,325,0,0,0,0,0,
324,330,330,330,335,0,0,0,0,0,334,330,330,325,0,0,
335,0,0,0,0,0,0,0,0,0,0,0,0,334,330,325,
0,0,0,0,0,0,0,0,0,0,0,0,0,0,0,334,
0,0,0,0,0,0,0,0,0,0,0,0,0,0,0,0,
0,0,0,0,0,0,0,0,0,0,0,0,0,0,0,0,
0,0,0,0,0,0,0,0,0,0,0,0,0,0,0,0,
0,0,0,0,0,0,0,0,0,0,0,0,0,0,0,0,
0,0,0,0,0,0,0,0,0,0,0,0,0,0,0,0,
0,0,0,0,0,0,0,0,0,0,0,0,0,0,0,0,
0,0,0,0,0,0,0,0,0,0,0,0,0,0,0,0,
0,0,0,0,0,0,0,0,0,0,0,0,0,0,0,0,
0,0,302,0,0,0,0,0,0,0,0,0,0,0,0,0,
0,0,0,0,0,0,0,0,0,0,0,0,0,0,0,0,
0,0,0,0,0,0,0,0,0,0,0,0,0,0,0,0
</chunk>
   <chunk x="16" y="0" width="16" height="16">
0,0,0,0,0,0,0,0,0,0,0,0,0,0,0,0,
0,0,0,0,0,0,0,0,0,0,0,0,0,0,0,0,
0,0,0,0,0,0,0,0,0,0,0,0,0,0,0,0,
0,0,0,0,0,0,0,0,0,0,0,0,0,0,0,0,
325,0,0,0,0,0,0,0,0,0,0,0,0,0,0,0,
334,330,325,0,0,0,0,0,0,0,0,0,0,0,0,0,
0,0,329,0,0,0,0,0,0,0,0,0,0,0,0,0,
0,0,334,325,0,0,0,0,0,0,0,0,0,0,0,0,
0,0,0,329,0,0,0,0,0,0,0,0,0,0,0,0,
0,0,0,334,325,0,0,0,0,0,0,0,0,0,0,0,
0,0,0,0,329,0,0,0,0,0,0,0,0,0,0,0,
0,0,0,0,329,0,0,0,0,0,0,0,0,0,0,0,
0,0,0,0,329,0,0,0,0,0,0,0,0,0,0,0,
0,0,0,0,329,0,0,0,0,0,0,0,0,0,0,0,
0,0,0,0,329,0,0,0,0,0,0,0,0,0,0,0,
0,0,0,324,335,0,0,0,0,0,0,0,0,0,0,0
</chunk>
   <chunk x="-16" y="16" width="16" height="16">
0,0,0,0,0,0,0,0,0,0,0,0,0,329,0,0,
0,0,0,0,0,0,0,0,0,0,0,0,0,334,325,0,
0,0,0,0,0,0,0,0,0,0,0,0,0,0,329,0,
0,0,0,0,0,0,0,0,0,0,0,0,0,0,334,330,
0,0,0,0,0,0,0,0,0,0,0,0,0,0,0,0,
0,0,0,0,0,0,0,0,0,0,0,0,0,0,0,0,
0,0,0,0,0,0,0,0,0,0,0,0,0,0,0,0,
0,0,0,0,0,0,0,0,0,0,0,0,0,0,0,0,
0,0,0,0,0,0,0,0,0,0,0,0,0,0,0,0,
0,0,0,0,0,0,0,0,0,0,0,0,0,0,0,0,
0,0,0,0,0,0,0,0,0,0,0,0,0,0,0,0,
0,0,0,0,0,0,0,0,0,0,0,0,0,0,0,0,
0,0,0,0,0,0,0,0,0,0,0,0,0,0,0,0,
0,0,0,0,0,0,0,0,0,0,0,0,0,0,0,0,
0,0,0,0,0,0,0,0,0,0,0,0,0,0,0,0,
0,0,0,0,0,0,0,0,0,0,0,0,0,0,0,0
</chunk>
   <chunk x="0" y="16" width="16" height="16">
0,0,0,0,0,0,0,0,0,0,0,0,0,0,0,0,
0,0,0,0,0,0,0,0,0,0,0,0,0,0,0,0,
0,0,0,0,0,0,0,0,0,0,0,0,0,0,0,0,
325,0,0,0,0,0,0,0,0,0,0,0,0,0,0,0,
334,330,325,0,0,0,0,0,0,0,0,0,0,0,0,0,
0,0,334,330,330,325,0,0,0,0,0,0,0,0,324,330,
0,0,0,0,0,334,330,330,330,330,330,330,330,330,335,0,
0,0,0,0,0,0,0,0,0,0,0,0,0,0,0,0,
0,0,0,0,0,0,0,0,0,0,0,0,0,0,0,0,
0,0,0,0,0,0,0,0,0,0,0,0,0,0,0,0,
0,0,0,0,0,0,0,0,0,0,0,0,0,0,0,0,
0,0,0,0,0,0,0,0,0,0,0,0,0,0,0,0,
0,0,0,0,0,0,0,0,0,0,0,0,0,0,0,0,
0,0,0,0,0,0,0,0,0,0,0,0,0,0,0,0,
0,0,0,0,0,0,0,0,0,0,0,0,0,0,0,0,
0,0,0,0,0,0,0,0,0,0,0,0,0,0,0,0
</chunk>
   <chunk x="16" y="16" width="16" height="16">
0,0,324,335,0,0,0,0,0,0,0,0,0,0,0,0,
0,0,329,0,0,0,0,0,0,0,0,0,0,0,0,0,
0,324,335,0,0,0,0,0,0,0,0,0,0,0,0,0,
0,329,0,0,0,0,0,0,0,0,0,0,0,0,0,0,
0,329,0,0,0,0,0,0,0,0,0,0,0,0,0,0,
330,335,0,0,0,0,0,0,0,0,0,0,0,0,0,0,
0,0,0,0,0,0,0,0,0,0,0,0,0,0,0,0,
0,0,0,0,0,0,0,0,0,0,0,0,0,0,0,0,
0,0,0,0,0,0,0,0,0,0,0,0,0,0,0,0,
0,0,0,0,0,0,0,0,0,0,0,0,0,0,0,0,
0,0,0,0,0,0,0,0,0,0,0,0,0,0,0,0,
0,0,0,0,0,0,0,0,0,0,0,0,0,0,0,0,
0,0,0,0,0,0,0,0,0,0,0,0,0,0,0,0,
0,0,0,0,0,0,0,0,0,0,0,0,0,0,0,0,
0,0,0,0,0,0,0,0,0,0,0,0,0,0,0,0,
0,0,0,0,0,0,0,0,0,0,0,0,0,0,0,0
</chunk>
  </data>
 </layer>
 <objectgroup id="4" name="Objects"/>
</map>
