<?xml version="1.0" encoding="UTF-8"?>
<map version="1.10" tiledversion="1.10.2" orientation="orthogonal" renderorder="right-down" width="64" height="64" tilewidth="64" tileheight="64" infinite="0" nextlayerid="5" nextobjectid="56">
 <tileset firstgid="1" source="../tsx/tiles.tsx"/>
 <tileset firstgid="1197" source="../tsx/Objects.tsx"/>
 <tileset firstgid="1232" source="../tsx/terrain_edges2.tsx"/>
 <layer id="1" name="Ground" width="64" height="64">
  <data encoding="csv">
943,944,943,944,943,944,943,944,943,944,943,944,943,944,943,944,943,944,943,944,943,944,943,944,943,944,943,944,943,944,943,944,943,944,943,944,943,944,943,944,943,944,943,944,943,944,943,944,943,944,943,944,943,944,943,944,943,944,943,944,943,944,943,944,
989,990,989,990,989,990,989,990,989,990,989,990,989,990,989,990,989,990,989,990,989,990,989,990,989,990,989,990,989,990,989,990,989,990,989,990,989,990,989,990,989,990,989,990,989,990,989,990,989,990,989,990,989,990,989,990,989,990,989,990,989,990,989,990,
943,944,943,944,943,944,943,944,943,944,943,944,943,944,943,944,943,944,943,944,943,944,943,944,943,944,943,944,943,944,943,944,943,944,943,944,943,944,943,944,943,944,943,944,943,944,943,944,943,944,943,944,943,944,943,944,943,944,943,944,943,944,943,944,
989,990,989,990,989,990,989,990,989,990,989,990,989,990,989,990,989,990,989,990,989,990,989,990,989,990,989,990,989,990,989,990,989,990,989,990,989,990,989,990,989,990,989,990,989,990,989,990,989,990,989,990,989,990,989,990,989,990,989,990,989,990,989,990,
943,944,943,944,943,944,943,944,943,944,943,944,943,944,943,944,943,944,943,944,943,944,943,944,943,944,943,944,943,944,943,944,943,944,943,944,943,944,943,944,943,944,943,944,943,944,943,944,943,944,943,944,943,944,943,944,943,944,943,944,943,944,943,944,
989,990,989,990,989,990,989,990,989,990,989,990,989,990,989,990,989,990,989,990,989,990,989,990,989,990,989,990,989,990,989,990,989,990,989,990,989,990,989,990,989,990,989,990,989,990,989,990,989,990,989,990,989,990,989,990,989,990,989,990,989,990,989,990,
943,944,943,944,943,944,943,944,943,944,943,944,943,944,943,944,943,944,943,944,943,944,943,944,943,944,943,944,943,944,943,944,943,944,943,944,943,944,943,944,943,944,943,944,943,944,943,944,943,944,943,944,943,944,943,944,943,944,943,944,943,944,943,944,
989,990,989,990,989,990,989,990,989,990,989,990,989,990,989,990,989,990,989,990,989,990,989,990,989,990,989,990,989,990,989,990,989,990,989,990,989,990,989,990,989,990,989,990,989,990,989,990,989,990,989,990,989,990,989,990,989,990,989,990,989,990,989,990,
943,944,943,944,943,944,943,944,943,944,943,944,943,944,943,944,943,944,943,944,943,944,943,944,943,944,943,944,943,944,943,944,943,944,943,944,943,944,943,944,943,944,943,944,943,944,943,944,943,944,943,944,943,944,943,944,943,944,943,944,943,944,943,944,
989,990,989,990,989,990,989,990,989,990,989,990,989,990,989,990,989,990,989,990,989,990,989,990,989,990,989,990,989,990,989,990,989,990,989,990,989,990,989,990,989,990,989,990,989,990,989,990,989,990,989,990,989,990,989,990,989,990,989,990,989,990,989,990,
943,944,943,944,943,944,943,944,943,944,943,944,943,944,943,944,943,944,943,944,943,944,943,944,943,944,943,944,943,944,943,944,943,944,943,944,943,944,943,944,943,944,943,944,943,944,943,944,943,944,943,944,943,944,943,944,943,944,943,944,943,944,943,944,
989,990,989,990,989,990,989,990,989,990,989,990,989,990,989,990,989,990,989,990,989,990,989,990,989,990,989,990,989,990,989,990,989,990,989,990,989,990,989,990,989,990,989,990,989,990,989,990,989,990,989,990,989,990,989,990,989,990,989,990,989,990,989,990,
943,944,943,944,943,944,943,944,943,944,943,944,943,944,943,944,943,944,943,944,943,944,943,944,943,944,943,944,943,944,943,944,943,944,943,944,943,944,943,944,943,944,943,944,943,944,943,944,943,944,943,944,943,944,943,944,943,944,943,944,943,944,943,944,
989,990,989,990,989,990,989,990,989,990,989,990,989,990,989,990,989,990,989,990,989,990,989,990,989,990,989,990,989,990,989,990,989,990,989,990,989,990,989,990,989,990,989,990,989,990,989,990,989,990,989,990,989,990,989,990,989,990,989,990,989,990,989,990,
943,944,943,944,943,944,943,944,943,944,943,944,943,944,943,944,943,944,943,944,943,944,943,944,943,944,943,944,943,944,943,944,943,944,943,944,943,944,943,944,943,944,943,944,943,944,943,944,943,944,943,944,943,944,943,944,943,944,943,944,943,944,943,944,
989,990,989,990,989,990,989,990,989,990,989,990,989,990,989,990,989,990,989,990,989,990,989,990,989,990,989,990,989,990,989,990,989,990,989,990,989,990,989,990,989,990,989,990,989,990,989,990,989,990,989,990,989,990,989,990,989,990,989,990,989,990,989,990,
943,944,943,944,943,944,943,944,943,944,943,944,943,944,943,944,943,944,943,944,943,944,943,944,943,944,943,944,943,944,943,944,943,944,943,944,943,944,943,944,943,944,943,944,943,944,943,944,943,944,943,944,943,944,943,944,943,944,943,944,943,944,943,944,
989,990,989,990,989,990,989,990,989,990,989,990,989,990,989,990,989,990,989,990,989,990,989,990,989,990,989,990,989,990,989,990,989,990,989,990,989,990,989,990,989,990,989,990,989,990,989,990,989,990,989,990,989,990,989,990,989,990,989,990,989,990,989,990,
943,944,943,944,943,944,943,944,943,944,943,944,943,944,943,944,943,944,943,944,943,944,943,944,943,944,943,944,943,944,943,944,943,944,943,944,943,944,943,944,943,944,943,944,943,944,943,944,943,944,943,944,943,944,943,944,943,944,943,944,943,944,943,944,
989,990,989,990,989,990,989,990,989,990,989,990,989,990,989,990,989,990,989,990,989,990,989,990,989,990,989,990,989,990,989,990,989,990,989,990,989,990,989,990,989,990,989,990,989,990,989,990,989,990,989,990,989,990,989,990,989,990,989,990,989,990,989,990,
943,944,943,944,943,944,943,944,943,944,943,944,943,944,943,944,943,944,943,944,943,944,943,944,943,944,943,944,943,944,943,944,943,944,943,944,943,944,943,944,943,944,943,944,943,944,943,944,943,944,943,944,943,944,943,944,943,944,943,944,943,944,943,944,
989,990,989,990,989,990,989,990,989,990,989,990,989,990,989,990,989,990,989,990,989,990,989,990,989,990,989,990,989,990,989,990,989,990,989,990,989,990,989,990,989,990,989,990,989,990,989,990,989,990,989,990,989,990,989,990,989,990,989,990,989,990,989,990,
943,944,943,944,943,944,943,944,943,944,943,944,943,944,943,944,943,944,943,944,943,944,943,944,943,944,943,944,943,944,943,944,943,944,943,944,943,944,943,944,943,944,943,944,943,944,943,944,943,944,943,944,943,944,943,944,943,944,943,944,943,944,943,944,
989,990,989,990,989,990,989,990,989,990,989,990,989,990,989,990,989,990,989,990,989,990,989,990,989,990,989,990,989,990,989,990,989,990,989,990,989,990,989,990,989,990,989,990,989,990,989,990,989,990,989,990,989,990,989,990,989,990,989,990,989,990,989,990,
943,944,943,944,943,944,943,944,943,944,943,944,943,944,943,944,943,944,943,944,943,944,943,944,943,944,943,944,943,944,943,944,943,944,943,944,943,944,943,944,943,944,943,944,943,944,943,944,943,944,943,944,943,944,943,944,943,944,943,944,943,944,943,944,
989,990,989,990,989,990,989,990,989,990,989,990,989,990,989,990,989,990,989,990,989,990,989,990,989,990,989,990,989,990,989,990,989,990,989,990,989,990,989,990,989,990,989,990,989,990,989,990,989,990,989,990,989,990,989,990,989,990,989,990,989,990,989,990,
943,944,943,944,943,944,943,944,943,944,943,944,943,944,943,944,943,944,943,944,943,944,943,944,943,944,943,944,943,944,943,944,943,944,943,944,943,944,943,944,943,944,943,944,943,944,943,944,943,944,943,944,943,944,943,944,943,944,943,944,943,944,943,944,
989,990,989,990,989,990,989,990,989,990,989,990,989,990,989,990,989,990,989,990,989,990,989,990,989,990,989,990,989,990,989,990,989,990,989,990,989,990,989,990,989,990,989,990,989,990,989,990,989,990,989,990,989,990,989,990,989,990,989,990,989,990,989,990,
943,944,943,944,943,944,943,944,943,944,943,944,943,944,943,944,943,944,943,944,943,944,943,944,943,944,943,944,943,944,943,944,943,944,943,944,943,944,943,944,943,944,943,944,943,944,943,944,943,944,943,944,943,944,943,944,943,944,943,944,943,944,943,944,
989,990,989,990,989,990,989,990,989,990,989,990,989,990,989,990,989,990,989,990,989,990,989,990,989,990,989,990,989,990,989,990,989,990,989,990,989,990,989,990,989,990,989,990,989,990,989,990,989,990,989,990,989,990,989,990,989,990,989,990,989,990,989,990,
943,944,943,944,943,944,943,944,943,944,943,944,943,944,943,944,943,944,943,944,943,944,943,944,943,944,943,944,943,944,943,944,943,944,943,944,943,944,943,944,943,944,943,944,943,944,943,944,943,944,943,944,943,944,943,944,943,944,943,944,943,944,943,944,
989,990,989,990,989,990,989,990,989,990,989,990,989,990,989,990,989,990,989,990,989,990,989,990,989,990,989,990,989,990,989,990,989,990,989,990,989,990,989,990,989,990,989,990,989,990,989,990,989,990,989,990,989,990,989,990,989,990,989,990,989,990,989,990,
943,944,943,944,943,944,943,944,943,944,943,944,943,944,943,944,943,944,943,944,943,944,943,944,943,944,943,944,943,944,943,944,943,944,943,944,943,944,943,944,943,944,943,944,943,944,943,944,943,944,943,944,943,944,943,944,943,944,943,944,943,944,943,944,
989,990,989,990,989,990,989,990,989,990,989,990,989,48,49,50,51,990,989,990,989,990,989,48,49,50,51,990,989,990,989,990,989,990,989,990,989,990,989,990,989,990,989,990,989,990,989,990,989,990,989,990,989,990,989,990,989,990,989,990,989,990,989,990,
943,944,943,944,943,944,943,944,943,944,943,944,943,94,95,96,97,593,594,593,594,593,594,94,95,96,97,944,943,944,943,944,943,944,943,944,943,944,943,944,943,944,943,944,943,944,943,944,943,944,943,944,943,944,943,944,943,944,943,944,943,944,943,944,
989,990,989,990,989,990,989,990,989,990,989,990,989,140,141,142,143,639,640,639,640,639,640,140,141,142,143,990,989,990,989,990,989,990,989,990,989,990,989,990,989,990,989,990,989,990,989,990,989,990,989,990,989,990,989,990,989,990,989,990,989,990,989,990,
943,944,943,944,943,944,943,944,943,944,943,944,943,186,187,188,189,0,0,0,0,0,0,186,187,188,189,944,943,944,943,944,943,944,943,944,943,944,943,944,943,944,943,944,943,944,943,944,943,944,943,944,943,944,943,944,943,944,943,944,943,944,943,944,
989,990,989,990,989,990,989,990,989,990,989,990,989,990,593,594,0,0,0,0,0,0,0,0,593,594,989,990,989,990,989,990,989,990,989,990,989,990,989,990,989,990,989,990,989,990,989,990,989,990,989,990,989,990,989,990,989,990,989,990,989,990,989,990,
943,944,943,944,943,944,943,944,943,944,943,944,943,944,639,640,0,0,0,0,0,0,0,0,639,640,943,944,943,944,943,944,943,944,943,944,943,944,943,944,943,944,943,944,943,944,943,944,943,944,943,944,943,944,943,944,943,944,943,944,943,944,943,944,
989,990,989,990,989,990,989,990,989,990,989,990,989,990,593,594,0,0,0,0,0,0,0,0,593,594,989,990,989,990,989,990,989,990,989,990,989,990,989,990,989,990,989,990,989,990,989,990,989,990,989,990,989,990,989,990,989,990,989,990,989,990,989,990,
943,944,943,944,943,944,943,944,943,944,943,944,943,944,639,640,0,0,0,0,0,0,0,0,639,640,943,944,943,944,943,944,943,944,943,944,943,944,943,944,943,944,943,944,943,944,943,944,943,944,943,944,943,944,943,944,943,944,943,944,943,944,943,944,
989,990,989,990,989,990,989,990,989,990,989,990,989,990,593,594,0,0,0,0,0,0,0,0,593,594,989,990,989,990,989,990,989,990,989,990,989,990,989,990,989,990,989,990,989,990,989,990,989,990,989,990,989,990,989,990,989,990,989,990,989,990,989,990,
943,944,943,944,943,944,943,944,943,944,943,944,943,944,639,640,0,0,0,0,0,0,0,0,639,640,943,944,943,944,943,944,943,944,943,944,943,944,943,944,943,944,943,944,943,944,943,944,943,944,943,944,943,944,943,944,943,944,943,944,943,944,943,944,
989,990,989,990,989,990,989,990,989,990,989,990,989,48,49,50,51,0,0,0,0,0,0,48,49,50,51,990,989,990,989,990,989,990,989,990,989,990,989,990,989,990,989,990,989,990,989,990,989,990,989,990,989,990,989,990,989,990,989,990,989,990,989,990,
943,944,943,944,943,944,943,944,943,944,943,944,943,94,95,96,97,593,594,593,594,593,594,94,95,96,97,944,943,944,943,944,943,944,943,944,943,944,943,944,943,944,943,944,943,944,943,944,943,944,943,944,943,944,943,944,943,944,943,944,943,944,943,944,
989,990,989,990,989,990,989,990,989,990,989,990,989,140,141,142,143,639,640,639,640,639,640,140,141,142,143,990,989,990,989,990,989,990,989,990,989,990,989,990,989,990,989,990,989,990,989,990,989,990,989,990,989,990,989,990,989,990,989,990,989,990,989,990,
943,944,943,944,943,944,943,944,943,944,943,944,943,186,187,188,189,944,943,944,943,944,943,186,187,188,189,944,943,944,943,944,943,944,943,944,943,944,943,944,943,944,943,944,943,944,943,944,943,944,943,944,943,944,943,944,943,944,943,944,943,944,943,944,
989,990,989,990,989,990,989,990,989,990,989,990,989,990,989,990,989,990,989,990,989,990,989,990,989,990,989,990,989,990,989,990,989,990,989,990,989,990,989,990,989,990,989,990,989,990,989,990,989,990,989,990,989,990,989,990,989,990,989,990,989,990,989,990,
943,944,943,944,943,944,943,944,943,944,943,944,943,944,943,944,943,944,943,944,943,944,943,944,943,944,943,944,943,944,943,944,943,944,943,944,943,944,943,944,943,944,943,944,943,944,943,944,943,944,943,944,943,944,943,944,943,944,943,944,943,944,943,944,
989,990,989,990,989,990,989,990,989,990,989,990,989,990,989,990,989,990,989,990,989,990,989,990,989,990,989,990,989,990,989,990,989,990,989,990,989,990,989,990,989,990,989,990,989,990,989,990,989,990,989,990,989,990,989,990,989,990,989,990,989,990,989,990,
943,944,943,944,943,944,943,944,943,944,943,944,943,944,943,944,943,944,943,944,943,944,943,944,943,944,943,944,943,944,943,944,943,944,943,944,943,944,943,944,943,944,943,944,943,944,943,944,943,944,943,944,943,944,943,944,943,944,943,944,943,944,943,944,
989,990,989,990,989,990,989,990,989,990,989,990,989,990,989,990,989,990,989,990,989,990,989,990,989,990,989,990,989,990,989,990,989,990,989,990,989,990,989,990,989,990,989,990,989,990,989,990,989,990,989,990,989,990,989,990,989,990,989,990,989,990,989,990,
943,944,943,944,943,944,943,944,943,944,943,944,943,944,943,944,943,944,943,944,943,944,943,944,943,944,943,944,943,944,943,944,943,944,943,944,943,944,943,944,943,944,943,944,943,944,943,944,943,944,943,944,943,944,943,944,943,944,943,944,943,944,943,944,
989,990,989,990,989,990,989,990,989,990,989,990,989,990,989,990,989,990,989,990,989,990,989,990,989,990,989,990,989,990,989,990,989,990,989,990,989,990,989,990,989,990,989,990,989,990,989,990,989,990,989,990,989,990,989,990,989,990,989,990,989,990,989,990,
943,944,943,944,943,944,943,944,943,944,943,944,943,944,943,944,943,944,943,944,943,944,943,944,943,944,943,944,943,944,943,944,943,944,943,944,943,944,943,944,943,944,943,944,943,944,943,944,943,944,943,944,943,944,943,944,943,944,943,944,943,944,943,944,
989,990,989,990,989,990,989,990,989,990,989,990,989,990,989,990,989,990,989,990,989,990,989,990,989,990,989,990,989,990,989,990,989,990,989,990,989,990,989,990,989,990,989,990,989,990,989,990,989,990,989,990,989,990,989,990,989,990,989,990,989,990,989,990,
943,944,943,944,943,944,943,944,943,944,943,944,943,944,943,944,943,944,943,944,943,944,943,944,943,944,943,944,943,944,943,944,943,944,943,944,943,944,943,944,943,944,943,944,943,944,943,944,943,944,943,944,943,944,943,944,943,944,943,944,943,944,943,944,
989,990,989,990,989,990,989,990,989,990,989,990,989,990,989,990,989,990,989,990,989,990,989,990,989,990,989,990,989,990,989,990,989,990,989,990,989,990,989,990,989,990,989,990,989,990,989,990,989,990,989,990,989,990,989,990,989,990,989,990,989,990,989,990,
943,944,943,944,943,944,943,944,943,944,943,944,943,944,943,944,943,944,943,944,943,944,943,944,943,944,943,944,943,944,943,944,943,944,943,944,943,944,943,944,943,944,943,944,943,944,943,944,943,944,943,944,943,944,943,944,943,944,943,944,943,944,943,944,
989,990,989,990,989,990,989,990,989,990,989,990,989,990,989,990,989,990,989,990,989,990,989,990,989,990,989,990,989,990,989,990,989,990,989,990,989,990,989,990,989,990,989,990,989,990,989,990,989,990,989,990,989,990,989,990,989,990,989,990,989,990,989,990,
943,944,943,944,943,944,943,944,943,944,943,944,943,944,943,944,943,944,943,944,943,944,943,944,943,944,943,944,943,944,943,944,943,944,943,944,943,944,943,944,943,944,943,944,943,944,943,944,943,944,943,944,943,944,943,944,943,944,943,944,943,944,943,944,
989,990,989,990,989,990,989,990,989,990,989,990,989,990,989,990,989,990,989,990,989,990,989,990,989,990,989,990,989,990,989,990,989,990,989,990,989,990,989,990,989,990,989,990,989,990,989,990,989,990,989,990,989,990,989,990,989,990,989,990,989,990,989,990,
943,944,943,944,943,944,943,944,943,944,943,944,943,944,943,944,943,944,943,944,943,944,943,944,943,944,943,944,943,944,943,944,943,944,943,944,943,944,943,944,943,944,943,944,943,944,943,944,943,944,943,944,943,944,943,944,943,944,943,944,943,944,943,944,
989,990,989,990,989,990,989,990,989,990,989,990,989,990,989,990,989,990,989,990,989,990,989,990,989,990,989,990,989,990,989,990,989,990,989,990,989,990,989,990,989,990,989,990,989,990,989,990,989,990,989,990,989,990,989,990,989,990,989,990,989,990,989,990
</data>
 </layer>
 <layer id="2" name="Plants and rocks" width="64" height="64">
  <data encoding="csv">
0,0,0,0,0,0,0,0,0,0,0,0,0,0,0,0,0,0,0,0,0,0,0,0,0,0,0,0,0,0,0,0,0,0,0,0,0,0,0,0,0,0,0,0,0,0,0,0,0,0,0,0,0,0,0,0,0,0,0,0,0,0,0,0,
0,0,0,0,0,0,0,0,0,0,0,0,0,0,0,0,0,0,0,0,0,0,0,0,0,0,0,0,0,0,0,0,0,0,0,0,0,0,0,0,0,0,0,0,0,0,0,0,0,0,0,0,0,0,0,0,0,0,0,0,0,0,0,0,
0,0,0,0,0,0,0,0,0,0,0,0,0,0,0,0,0,0,0,0,0,0,0,0,0,0,0,0,0,0,0,0,0,0,0,0,0,0,0,0,0,0,0,0,0,0,0,0,0,0,0,0,0,0,0,0,0,0,0,0,0,0,0,0,
0,0,0,0,0,0,0,0,0,0,0,0,0,0,0,0,0,0,0,0,0,0,0,0,0,0,0,0,0,0,0,0,0,0,0,0,0,0,0,0,0,0,0,0,0,0,0,0,0,0,0,0,0,0,0,0,0,0,0,0,0,0,0,0,
0,0,0,0,0,0,0,0,0,0,0,0,0,0,0,0,0,0,0,0,0,0,0,0,0,0,0,0,0,0,0,0,0,0,0,0,0,0,0,0,0,0,0,0,0,0,0,0,0,0,0,0,0,0,0,0,0,0,0,0,0,0,0,0,
0,0,0,0,0,0,0,0,0,0,0,0,0,0,0,0,0,0,0,0,0,0,0,0,0,0,0,0,0,0,0,0,0,0,0,0,0,0,0,0,0,0,0,0,0,0,0,0,0,0,0,0,0,0,0,0,0,0,0,0,0,0,0,0,
0,0,0,0,0,0,0,0,0,0,0,0,0,0,0,0,0,0,0,0,0,0,0,0,0,0,0,0,0,0,0,0,0,0,0,0,0,0,0,0,0,0,0,0,0,0,0,0,0,0,0,0,0,0,0,0,0,0,0,0,0,0,0,0,
0,0,0,0,0,0,0,0,0,0,0,0,0,0,0,0,0,0,0,0,0,0,0,0,0,0,0,0,0,0,0,0,0,0,0,0,0,0,0,0,0,0,0,0,0,0,0,0,0,0,0,0,0,0,0,0,0,0,0,0,0,0,0,0,
0,0,0,0,0,0,0,0,0,0,0,0,0,0,0,0,0,505,506,0,0,0,0,0,0,0,0,0,0,0,0,0,0,0,0,0,0,0,0,0,0,0,0,0,0,0,0,0,0,0,0,0,0,0,0,0,0,0,0,0,0,0,0,0,
0,0,0,0,0,0,0,0,0,0,0,0,0,0,0,0,0,551,552,0,0,0,0,0,0,0,0,0,0,0,0,499,500,0,0,0,0,0,0,0,0,0,0,0,0,0,0,0,0,0,0,0,0,0,0,0,0,0,0,0,0,0,0,0,
0,0,0,0,0,0,0,499,500,0,0,0,0,0,0,0,0,0,0,505,506,505,506,0,0,0,0,0,0,0,0,545,546,0,0,0,0,0,0,0,0,0,0,0,0,0,0,0,0,0,0,0,0,0,0,0,0,0,0,0,0,0,0,0,
0,0,0,0,0,0,0,545,546,0,0,0,0,0,0,0,0,0,0,551,552,551,552,0,0,0,0,0,0,0,0,0,0,0,0,0,0,0,0,0,0,0,0,0,0,0,0,0,0,0,0,0,0,0,0,0,0,0,0,0,0,0,0,0,
0,0,0,0,0,0,0,0,0,0,0,0,0,0,0,0,0,0,0,0,0,0,0,0,0,0,0,0,0,0,0,0,0,0,0,0,0,0,0,0,0,0,0,0,0,0,0,0,0,0,0,0,0,0,0,0,0,0,0,0,0,0,0,0,
0,0,0,0,0,0,0,0,0,0,0,0,0,0,0,0,0,0,0,0,0,0,0,0,0,0,0,0,0,0,0,0,0,0,0,0,0,0,0,0,0,0,0,0,0,0,0,0,0,0,0,0,0,0,0,0,0,0,0,0,0,0,0,0,
0,0,0,0,0,0,0,0,0,0,0,0,0,0,0,0,0,0,0,0,0,0,0,0,0,0,0,0,0,0,0,0,0,0,0,0,0,0,0,0,0,0,0,0,0,0,0,0,0,0,0,0,0,0,0,0,0,0,0,0,0,0,0,0,
0,0,0,0,0,0,0,0,0,0,0,0,0,0,0,0,0,0,0,0,0,0,0,0,0,0,0,0,0,0,0,0,0,0,0,0,0,0,0,0,0,0,0,0,0,0,0,0,0,0,0,0,0,0,0,0,0,0,0,0,0,0,0,0,
0,0,0,0,0,0,0,0,0,0,0,0,0,0,0,0,0,0,0,0,0,0,0,499,500,0,0,0,0,0,0,0,0,0,0,0,0,0,0,0,0,0,0,0,0,0,0,0,0,0,0,0,0,0,0,0,0,0,0,0,0,0,0,0,
0,0,0,0,0,0,0,0,0,0,0,0,0,0,0,0,0,0,0,0,0,0,0,545,546,0,0,0,0,0,0,0,0,0,0,0,0,0,0,0,0,0,0,0,0,0,0,0,0,0,0,0,0,0,0,0,0,0,0,0,0,0,0,0,
0,0,0,0,0,0,0,0,0,0,0,0,0,0,0,0,0,0,0,0,0,0,0,0,0,0,0,0,0,0,0,0,0,0,0,0,0,0,0,0,0,0,0,0,0,0,0,0,0,0,0,0,0,0,0,0,0,0,0,0,0,0,0,0,
0,0,0,0,0,0,0,0,0,0,0,0,0,0,0,0,0,0,0,0,0,0,0,0,0,0,0,0,0,0,0,0,0,0,0,0,0,0,0,0,0,0,0,0,0,0,0,0,0,0,0,0,0,0,0,0,0,0,0,0,0,0,0,0,
0,0,0,0,0,0,0,0,0,0,0,0,0,0,0,0,0,0,0,0,0,0,0,0,0,0,0,0,0,0,0,0,0,0,0,0,0,0,0,0,0,0,0,0,0,0,0,0,0,0,0,0,0,0,0,0,0,0,0,0,0,0,0,0,
0,0,0,0,0,0,499,500,0,0,0,0,0,0,0,0,0,0,0,0,0,0,0,0,0,0,0,0,0,0,0,0,0,0,0,0,0,0,0,0,0,0,0,0,0,0,0,0,0,0,0,0,0,0,0,0,0,0,0,0,0,0,0,0,
0,0,0,0,0,0,545,546,0,0,0,0,0,0,0,0,0,0,0,0,0,0,0,0,0,0,0,0,0,0,0,0,0,0,0,0,0,0,0,0,0,0,0,0,0,0,0,0,0,0,0,0,0,0,0,0,0,0,0,0,0,0,0,0,
0,0,0,0,0,0,0,0,505,506,0,0,0,0,0,0,0,0,0,0,0,0,0,0,0,0,0,0,0,0,0,0,0,0,0,0,0,0,0,0,0,0,0,0,0,0,0,0,0,0,0,0,0,0,0,0,0,0,0,0,0,0,0,0,
0,0,0,0,0,0,0,0,551,552,0,0,0,0,0,0,0,0,0,0,0,0,0,0,0,0,0,0,0,0,0,0,0,0,0,0,0,0,0,0,0,0,0,0,0,0,0,0,0,0,0,0,0,0,0,0,0,0,0,0,0,0,0,0,
0,0,0,0,0,0,0,0,0,0,0,0,0,0,0,0,0,0,0,0,0,0,0,0,0,0,0,0,0,0,0,0,0,0,0,0,0,0,0,0,0,0,0,0,0,0,0,0,0,0,0,0,0,0,0,0,0,0,0,0,0,0,0,0,
0,0,0,0,0,0,0,0,0,0,0,0,0,0,0,0,0,0,0,0,0,0,0,0,0,0,0,0,0,0,0,0,0,0,0,0,0,0,0,0,0,0,0,0,0,0,0,0,0,0,0,0,0,0,0,0,0,0,0,0,0,0,0,0,
0,0,0,0,0,0,0,0,0,0,499,500,0,0,0,0,0,0,0,0,0,0,0,0,0,0,0,0,0,0,0,0,0,0,0,0,0,0,0,0,0,0,0,0,0,0,0,0,0,0,0,0,0,0,0,0,0,0,0,0,0,0,0,0,
0,0,0,0,0,0,0,0,0,0,545,546,0,0,0,0,0,0,0,0,0,0,0,0,0,0,0,0,0,0,0,0,0,0,0,0,0,0,0,0,0,0,0,0,0,0,0,0,0,0,0,0,0,0,0,0,0,0,0,0,0,0,0,0,
0,0,0,0,0,0,0,0,0,0,0,0,0,0,0,0,0,0,0,0,0,0,0,0,0,0,0,0,0,0,0,0,0,0,0,0,0,0,0,0,0,0,0,0,0,0,0,0,0,0,0,0,0,0,0,0,0,0,0,0,0,0,0,0,
0,0,0,0,0,0,0,0,0,0,0,0,0,0,0,0,0,0,0,0,0,0,0,0,0,0,0,0,0,0,0,0,0,0,0,0,0,0,0,0,0,0,0,0,0,0,0,0,0,0,0,0,0,0,0,0,0,0,0,0,0,0,0,0,
0,0,0,0,0,0,0,0,0,0,0,0,0,0,0,0,0,0,0,0,0,0,0,0,0,0,0,0,0,0,0,0,0,0,0,0,0,0,0,0,0,0,0,0,0,0,0,0,0,0,0,0,0,0,0,0,0,0,0,0,0,0,0,0,
0,0,0,0,0,0,0,0,0,0,0,0,0,0,0,0,0,0,0,0,0,0,0,0,0,0,0,0,0,0,0,0,0,0,0,0,0,0,0,0,0,0,0,0,0,0,0,0,0,0,0,0,0,0,0,0,0,0,0,0,0,0,0,0,
0,0,0,0,0,0,0,0,0,0,0,0,0,0,0,0,0,0,0,0,0,0,0,0,0,0,0,0,0,0,499,500,0,0,0,0,0,0,0,0,0,0,0,0,0,0,0,0,0,0,0,0,0,0,0,0,0,0,0,0,0,0,0,0,
0,0,0,0,0,0,0,0,0,0,0,0,0,0,499,500,0,0,0,0,0,0,0,0,499,500,0,0,0,0,545,546,0,0,0,0,0,0,0,0,0,0,0,0,0,0,0,0,0,0,0,0,0,0,0,0,0,0,0,0,0,0,0,0,
0,0,0,0,0,0,0,0,0,0,0,0,0,0,545,546,0,0,0,0,0,0,0,0,545,546,0,0,0,0,0,0,0,0,0,0,0,0,0,0,0,0,0,0,0,0,0,0,0,0,0,0,0,0,0,0,0,0,0,0,0,0,0,0,
0,0,0,0,0,0,0,0,0,0,0,0,0,0,0,0,0,0,0,0,0,0,0,0,0,0,0,0,0,0,0,0,0,0,0,0,0,0,0,0,0,0,0,0,0,0,0,0,0,0,0,0,0,0,0,0,0,0,0,0,0,0,0,0,
0,0,0,0,0,0,0,0,0,0,0,0,0,0,0,0,0,0,0,0,0,0,0,0,0,0,0,0,0,0,0,0,0,0,0,0,0,0,0,0,0,0,0,0,0,0,0,0,0,0,0,0,0,0,0,0,0,0,0,0,0,0,0,0,
0,0,0,0,0,0,0,0,0,0,0,0,0,0,0,0,0,0,0,0,0,0,0,0,0,0,0,0,505,506,0,0,0,0,0,0,0,0,0,0,0,0,0,0,0,0,0,0,0,0,0,0,0,0,0,0,0,0,0,0,0,0,0,0,
0,0,0,0,0,0,0,0,0,499,500,0,0,0,0,0,0,0,0,0,0,0,0,0,0,0,0,0,551,552,0,0,0,0,0,0,0,0,0,0,0,0,0,0,0,0,0,0,0,0,0,0,0,0,0,0,0,0,0,0,0,0,0,0,
0,0,0,0,0,0,505,506,0,545,546,0,0,0,0,0,0,0,0,0,0,0,0,0,0,0,0,0,0,0,0,0,0,0,0,0,0,0,0,0,0,0,0,0,0,0,0,0,0,0,0,0,0,0,0,0,0,0,0,0,0,0,0,0,
0,0,0,0,0,0,551,552,0,0,0,0,0,0,0,0,0,0,0,0,0,0,0,0,0,0,0,0,0,0,0,0,0,0,0,0,0,0,0,0,0,0,0,0,0,0,0,0,0,0,0,0,0,0,0,0,0,0,0,0,0,0,0,0,
0,0,0,0,0,0,0,0,0,0,0,0,0,0,0,0,0,0,0,0,0,0,0,0,0,0,0,0,0,0,0,0,0,0,0,0,0,0,0,0,0,0,0,0,0,0,0,0,0,0,0,0,0,0,0,0,0,0,0,0,0,0,0,0,
0,0,0,0,0,0,0,0,0,0,0,0,0,0,0,0,0,0,0,0,0,0,0,0,0,0,0,0,0,0,0,0,0,0,0,0,0,0,0,0,0,0,0,0,0,0,0,0,0,0,0,0,0,0,0,0,0,0,0,0,0,0,0,0,
0,0,0,0,0,0,0,0,0,0,0,0,0,0,499,500,0,0,0,0,0,0,0,0,499,500,0,0,0,0,0,0,0,0,0,0,0,0,0,0,0,0,0,0,0,0,0,0,0,0,0,0,0,0,0,0,0,0,0,0,0,0,0,0,
0,0,0,0,0,0,0,0,0,0,0,0,0,0,545,546,0,0,0,0,0,0,0,0,545,546,0,0,0,0,0,0,0,0,0,0,0,0,0,0,0,0,0,0,0,0,0,0,0,0,0,0,0,0,0,0,0,0,0,0,0,0,0,0,
0,0,0,0,0,0,0,0,0,0,0,0,0,0,0,0,0,0,0,0,0,0,0,0,0,0,0,0,0,0,0,0,0,0,0,0,0,0,0,0,0,0,0,0,0,0,0,0,0,0,0,0,0,0,0,0,0,0,0,0,0,0,0,0,
0,0,0,0,0,0,0,0,0,0,0,0,0,0,0,0,0,0,0,0,0,0,0,0,0,0,0,0,0,0,0,0,0,0,0,0,0,0,0,0,0,0,0,0,0,0,0,0,0,0,0,0,0,0,0,0,0,0,0,0,0,0,0,0,
0,0,0,0,0,0,0,0,0,0,0,0,0,0,0,0,0,0,0,0,505,506,0,0,0,0,0,0,0,0,0,0,0,0,0,0,0,0,0,0,0,0,0,0,0,0,0,0,0,0,0,0,0,0,0,0,0,0,0,0,0,0,0,0,
0,0,0,0,0,0,0,0,0,0,0,0,0,0,0,0,0,0,0,0,551,552,0,0,0,0,0,0,0,0,0,0,0,0,0,0,0,0,0,0,0,0,0,0,0,0,0,0,0,0,0,0,0,0,0,0,0,0,0,0,0,0,0,0,
0,0,0,0,0,0,0,499,500,0,0,0,0,0,0,0,0,0,0,0,0,0,0,0,0,0,0,0,0,0,0,0,0,0,0,0,0,0,0,0,0,0,0,0,0,0,0,0,0,0,0,0,0,0,0,0,0,0,0,0,0,0,0,0,
0,0,0,0,0,0,0,545,546,0,0,0,0,0,0,0,0,0,0,0,0,0,0,0,0,0,0,0,0,0,0,0,0,0,0,0,0,0,0,0,0,0,0,0,0,0,0,0,0,0,0,0,0,0,0,0,0,0,0,0,0,0,0,0,
0,0,0,0,0,0,0,0,0,0,0,0,0,0,0,0,0,0,0,0,0,0,0,0,0,0,0,0,0,0,0,0,0,0,0,0,0,0,0,0,0,0,0,0,0,0,0,0,0,0,0,0,0,0,0,0,0,0,0,0,0,0,0,0,
0,0,0,0,0,0,0,0,0,0,0,0,0,0,0,0,0,0,0,0,0,0,0,0,0,0,0,0,0,0,0,0,0,0,0,0,0,0,0,0,0,0,0,0,0,0,0,0,0,0,0,0,0,0,0,0,0,0,0,0,0,0,0,0,
0,0,0,0,0,0,0,0,0,0,0,0,0,0,0,0,0,0,0,0,0,0,0,0,0,0,0,0,0,0,0,0,0,0,0,0,0,0,0,0,0,0,0,0,0,0,0,0,0,0,0,0,0,0,0,0,0,0,0,0,0,0,0,0,
0,0,0,0,0,0,0,0,0,0,0,0,0,0,0,0,0,0,0,0,0,0,0,0,0,0,0,0,0,0,0,0,499,500,0,0,0,0,0,0,0,0,0,0,0,0,0,0,0,0,0,0,0,0,0,0,0,0,0,0,0,0,0,0,
0,0,0,0,0,0,0,0,0,0,0,0,0,0,0,499,500,0,0,0,0,0,0,0,0,0,0,0,0,0,0,0,545,546,0,0,0,0,0,0,0,0,0,0,0,0,0,0,0,0,0,0,0,0,0,0,0,0,0,0,0,0,0,0,
0,0,0,0,0,0,0,0,0,0,0,0,0,0,0,545,546,0,0,0,0,0,0,0,0,0,0,0,0,0,0,0,0,0,0,0,0,0,0,0,0,0,0,0,0,0,0,0,0,0,0,0,0,0,0,0,0,0,0,0,0,0,0,0,
0,0,0,0,0,0,0,0,0,0,0,0,0,0,0,0,0,0,0,0,0,0,0,0,0,0,0,0,0,505,506,0,0,0,0,0,0,0,0,0,0,0,0,0,0,0,0,0,0,0,0,0,0,0,0,0,0,0,0,0,0,0,0,0,
0,0,0,0,0,0,0,0,0,0,0,0,0,0,0,0,0,0,0,0,0,0,0,0,0,0,0,0,0,551,552,0,0,0,0,0,0,0,0,0,0,0,0,0,0,0,0,0,0,0,0,0,0,0,0,0,0,0,0,0,0,0,0,0,
0,0,0,0,0,0,0,0,0,0,0,0,0,0,0,0,0,0,0,0,0,0,0,0,0,0,0,0,0,0,0,0,0,0,0,0,0,0,0,0,0,0,0,0,0,0,0,0,0,0,0,0,0,0,0,0,0,0,0,0,0,0,0,0,
0,0,0,0,0,0,0,0,0,0,0,0,0,0,0,0,0,0,0,0,0,0,0,0,0,0,0,0,0,0,0,0,0,0,0,0,0,0,0,0,0,0,0,0,0,0,0,0,0,0,0,0,0,0,0,0,0,0,0,0,0,0,0,0,
0,0,0,0,0,0,0,0,0,0,0,0,0,0,0,0,0,0,0,0,0,0,0,0,0,0,0,0,0,0,0,0,0,0,0,0,0,0,0,0,0,0,0,0,0,0,0,0,0,0,0,0,0,0,0,0,0,0,0,0,0,0,0,0,
0,0,0,0,0,0,0,0,0,0,0,0,0,0,0,0,0,0,0,0,0,0,0,0,0,0,0,0,0,0,0,0,0,0,0,0,0,0,0,0,0,0,0,0,0,0,0,0,0,0,0,0,0,0,0,0,0,0,0,0,0,0,0,0
</data>
 </layer>
 <layer id="4" name="Roads" width="64" height="64">
  <data encoding="csv">
0,0,0,0,0,0,0,0,0,0,0,0,0,0,0,0,0,0,0,0,0,0,0,0,0,0,0,0,0,0,0,0,0,0,0,0,0,0,0,0,0,0,0,0,0,0,0,0,0,0,0,0,0,0,0,0,0,0,0,0,0,0,0,0,
0,0,0,0,0,0,0,0,0,0,0,0,0,0,0,0,0,0,0,0,0,0,0,0,0,0,0,0,0,0,0,0,0,0,0,0,0,0,0,0,0,0,0,0,0,0,0,0,0,0,0,0,0,0,0,0,0,0,0,0,0,0,0,0,
0,0,0,0,0,0,0,0,0,0,0,0,0,0,0,0,0,0,0,0,0,0,0,0,0,0,0,0,0,0,0,0,0,0,0,0,0,0,0,0,0,0,0,0,0,0,0,0,0,0,0,0,0,0,0,0,0,0,0,0,0,0,0,0,
0,0,0,0,0,0,0,0,0,0,0,0,0,0,0,0,0,0,0,0,0,0,0,0,0,0,0,0,0,0,0,0,0,0,0,0,0,0,0,0,0,0,0,0,0,0,0,0,0,0,0,0,0,0,0,0,0,0,0,0,0,0,0,0,
0,0,0,0,0,0,0,0,0,0,0,0,0,0,0,0,0,0,0,0,0,0,0,0,0,0,0,0,0,0,0,0,0,0,0,0,0,0,0,0,0,0,0,0,0,0,0,0,0,0,0,0,0,0,0,0,0,0,0,0,0,0,0,0,
0,0,0,0,0,0,0,0,0,0,0,0,0,0,0,0,0,0,0,0,0,0,0,0,0,0,0,0,0,0,0,0,0,0,0,0,0,0,0,0,0,0,0,0,0,0,0,0,0,0,0,0,0,0,0,0,0,0,0,0,0,0,0,0,
0,0,0,0,0,0,0,0,0,0,0,0,0,0,0,0,0,0,0,0,0,0,0,0,0,0,0,0,0,0,0,0,0,0,0,0,0,0,0,0,0,0,0,0,0,0,0,0,0,0,0,0,0,0,0,0,0,0,0,0,0,0,0,0,
0,0,0,0,0,0,0,0,0,0,0,0,0,0,0,0,0,0,0,0,0,0,0,0,0,0,0,0,0,0,0,0,0,0,0,0,0,0,0,1232,1238,1238,1238,1238,1233,0,0,0,0,0,0,0,0,0,0,0,0,0,0,0,0,0,0,0,
0,0,0,0,0,0,0,0,0,0,0,0,0,0,0,0,0,0,0,0,0,0,0,0,0,0,0,0,0,0,0,0,0,0,0,0,0,0,1232,1243,0,0,0,0,1242,1233,0,0,0,0,0,0,0,0,0,0,0,0,0,0,0,0,0,0,
0,0,0,0,0,0,0,0,0,0,0,0,0,0,0,0,0,0,0,0,0,0,0,0,0,0,0,0,0,0,0,0,0,0,0,0,0,1232,1243,0,0,1232,1238,1238,1233,1237,0,0,0,0,0,0,0,0,0,0,0,0,0,0,0,0,0,0,
0,0,0,0,0,0,0,0,0,0,0,0,0,0,0,0,0,0,0,0,0,0,0,0,0,0,0,0,0,0,0,0,0,0,0,0,0,1237,0,0,1232,1243,1232,1238,1243,1242,1233,0,0,0,0,0,0,0,0,0,0,0,0,0,0,0,0,0,
0,0,0,0,0,0,0,0,0,0,0,0,0,0,0,0,0,0,0,0,0,0,0,0,0,0,0,0,0,0,0,0,0,0,0,0,1232,1243,0,0,1242,1238,1243,0,0,0,1242,1233,0,0,0,0,0,0,0,0,0,0,0,0,0,0,0,0,
0,0,0,0,0,0,0,0,0,0,0,0,0,0,0,0,0,0,0,0,0,0,0,0,0,0,0,0,0,0,0,0,0,0,0,0,1237,0,0,0,0,0,0,0,0,0,0,1237,0,0,0,0,0,0,0,0,0,0,0,0,0,0,0,0,
0,0,0,0,0,0,0,0,0,0,0,0,0,0,0,0,0,0,0,0,0,0,0,0,0,0,0,0,0,0,0,0,0,0,0,0,1237,0,0,0,0,0,0,0,0,0,0,1242,1233,0,0,0,0,0,0,0,0,0,0,0,0,0,0,0,
0,0,0,0,0,0,0,0,0,0,0,0,0,0,0,0,0,0,0,0,0,0,0,0,0,0,0,0,0,0,0,0,0,0,0,0,1237,0,0,0,0,0,0,0,0,0,0,0,1237,0,0,0,0,0,0,0,0,0,0,0,0,0,0,0,
0,0,0,0,0,0,0,0,0,0,0,0,0,0,0,0,0,0,0,0,0,0,0,0,0,0,0,0,0,0,0,0,0,0,0,0,1247,1233,0,0,0,0,0,0,0,0,0,0,1237,0,0,0,0,0,0,0,0,0,0,0,0,0,0,0,
0,0,0,0,0,0,0,0,0,0,0,0,0,0,0,0,0,0,0,0,0,0,0,0,0,0,0,0,0,0,0,0,0,0,0,0,1242,1248,0,1240,0,0,0,0,0,0,0,0,1237,0,0,0,0,0,0,0,0,0,0,0,0,0,0,0,
0,0,0,0,0,0,0,0,0,0,0,0,0,1232,1238,1238,1238,1238,1233,0,0,0,0,0,0,0,0,0,1231,0,0,0,0,0,0,0,0,1247,1238,1248,0,0,0,0,0,0,0,0,1237,0,0,0,0,0,0,0,0,0,0,0,0,0,0,0,
0,0,0,0,0,0,0,0,0,0,0,0,1232,1243,0,0,0,0,1242,1238,1238,1238,1238,1233,0,0,0,0,0,0,0,0,0,0,0,0,0,1237,1232,1246,1238,1241,0,0,0,0,0,1232,1243,0,0,0,0,0,0,0,0,0,0,0,0,0,0,0,
0,0,0,0,0,0,0,0,0,0,0,1251,1248,0,0,0,0,0,0,0,0,0,0,1237,0,0,0,0,0,0,0,0,0,0,0,0,0,1237,1237,0,0,0,0,0,0,0,0,1237,0,0,0,0,0,0,0,0,0,0,0,0,0,0,0,0,
0,0,0,0,0,0,0,0,0,0,0,0,1242,1238,1238,1238,1238,1233,0,0,0,0,1232,1243,0,0,0,0,1230,0,0,0,0,0,0,0,0,1237,1237,0,0,0,0,0,0,0,1232,1243,0,0,0,0,0,0,0,0,0,0,0,0,0,0,0,0,
0,0,0,0,0,0,0,0,0,0,0,0,0,0,0,0,0,1242,1238,1236,1238,1238,1243,0,0,0,0,0,0,0,0,0,0,0,0,0,0,1237,1237,0,1251,1241,0,0,0,1232,1243,0,0,0,0,0,0,0,0,0,0,0,0,0,0,0,0,0,
0,0,0,0,0,0,0,0,0,0,0,0,0,0,0,0,0,0,0,1250,0,0,0,0,0,0,0,0,0,0,0,0,0,0,0,0,0,1242,1248,0,1240,0,0,0,1232,1243,0,0,0,0,0,0,0,0,0,0,0,0,0,0,0,0,0,0,
0,0,0,0,0,0,0,0,0,0,0,0,0,0,0,0,0,0,0,0,0,0,0,0,0,0,0,0,0,0,0,0,0,0,0,0,0,0,1237,0,1250,0,0,0,1237,0,0,0,0,0,0,0,0,0,0,0,0,0,0,0,0,0,0,0,
0,0,0,0,0,0,0,0,0,0,0,0,0,0,0,0,0,0,0,0,0,0,0,0,0,0,0,0,0,0,0,0,0,0,0,0,0,0,1237,0,0,0,0,1232,1248,0,0,0,0,0,0,0,0,0,0,0,0,0,0,0,0,0,0,0,
0,0,0,0,0,0,0,0,0,0,0,0,0,0,0,0,0,0,0,0,0,0,0,0,0,0,0,0,0,0,0,0,0,0,0,0,0,0,1237,0,0,0,0,1237,1237,0,0,0,0,0,0,0,0,0,0,0,0,0,0,0,0,0,0,0,
0,0,0,0,0,0,0,0,0,0,0,0,0,0,0,0,0,0,0,0,0,0,0,0,0,0,0,0,0,0,0,0,0,0,0,0,0,0,1237,0,0,0,0,1247,1248,0,0,0,0,0,0,0,0,0,0,0,0,0,0,0,0,0,0,0,
0,0,0,0,0,0,0,0,0,0,0,0,0,0,0,0,0,0,0,0,0,0,0,0,0,0,0,0,0,0,0,0,0,0,0,0,0,0,1237,0,0,1251,1236,1243,1237,0,0,0,0,0,0,0,0,0,0,0,0,0,0,0,0,0,0,0,
0,0,0,0,0,0,0,0,0,0,0,0,0,0,0,0,0,0,0,0,0,0,0,0,0,0,0,0,0,0,0,0,0,0,0,0,0,0,1237,0,0,1232,1243,0,1237,0,0,0,0,0,0,0,0,0,0,0,0,0,0,0,0,0,0,0,
0,0,0,0,0,0,0,0,0,0,0,0,0,0,0,0,0,0,0,0,0,0,0,0,0,0,0,0,0,0,0,0,0,0,0,0,0,0,1237,0,0,1237,0,0,1237,0,0,0,0,0,0,0,0,0,0,0,0,0,0,0,0,0,0,0,
0,0,0,0,0,0,0,0,0,0,0,0,0,0,0,0,0,0,0,0,0,0,0,0,0,0,0,0,0,0,0,0,0,0,0,0,0,1232,1243,0,0,1237,0,0,1237,0,0,0,0,0,0,0,0,0,0,0,0,0,0,0,0,0,0,0,
0,0,0,0,0,0,0,0,0,0,0,0,0,0,0,0,0,0,0,0,0,0,0,0,0,0,0,0,0,0,0,0,0,0,0,0,1232,1243,0,0,1251,1243,0,0,1237,0,0,0,0,0,0,0,0,0,0,0,0,0,0,0,0,0,0,0,
0,0,0,0,0,0,0,0,0,0,0,0,0,0,0,0,0,0,0,0,0,0,0,0,0,0,0,0,0,0,0,0,0,0,0,1232,1243,0,0,0,0,0,0,0,1237,0,0,0,0,0,0,0,0,0,0,0,0,0,0,0,0,0,0,0,
0,0,0,0,0,0,0,0,0,0,0,0,0,0,0,0,0,0,0,0,0,0,0,0,0,0,0,0,0,0,0,0,0,0,0,1237,0,0,0,1232,1241,0,0,0,1237,0,0,0,0,0,0,0,0,0,0,0,0,0,0,0,0,0,0,0,
0,0,0,0,0,0,0,0,0,0,0,0,0,0,0,0,0,0,0,0,0,0,0,0,0,0,0,0,0,0,0,0,0,0,1232,1243,0,0,0,1237,0,0,0,0,1237,0,0,0,0,0,0,0,0,0,0,0,0,0,0,0,0,0,0,0,
0,0,0,0,0,0,0,0,0,0,0,0,0,0,0,0,0,0,0,1232,1241,0,0,0,0,0,0,0,0,0,0,0,0,1232,1243,0,0,0,0,1237,0,0,0,1232,1243,0,0,0,0,0,0,0,0,0,0,0,0,0,0,0,0,0,0,0,
0,0,0,0,0,0,0,0,0,0,0,0,0,0,0,0,0,0,0,1237,0,0,0,0,0,0,0,0,0,0,0,0,0,1237,0,0,0,0,0,1237,0,0,0,1237,0,0,0,0,0,0,0,0,0,0,0,0,0,0,0,0,0,0,0,0,
0,0,0,0,0,0,0,0,0,0,0,0,0,0,0,0,0,0,0,1237,0,0,0,0,0,0,0,0,0,0,0,0,0,1237,0,0,0,0,0,1237,0,0,0,1237,0,0,0,0,0,0,0,0,0,0,0,0,0,0,0,0,0,0,0,0,
0,0,0,0,0,0,0,0,0,0,0,0,0,0,0,0,0,0,0,1247,1238,1233,0,0,0,0,0,0,0,0,0,0,1232,1248,0,0,0,0,0,1250,0,0,0,1237,0,0,0,0,0,0,0,0,0,0,0,0,0,0,0,0,0,0,0,0,
0,0,0,0,0,0,0,0,0,0,0,0,0,0,0,0,0,0,0,1237,0,1242,1238,1238,1238,1233,0,0,0,0,1232,1238,1243,1237,0,0,0,1232,1241,0,0,0,0,1237,0,0,0,0,0,0,0,0,0,0,0,0,0,0,0,0,0,0,0,0,
0,0,0,0,0,0,0,0,0,0,0,0,0,0,0,0,0,0,1232,1243,0,0,0,0,0,1242,1238,1238,1238,1238,1243,0,0,1237,0,0,0,1250,0,0,0,0,0,1237,0,0,0,0,0,0,0,0,0,0,0,0,0,0,0,0,0,0,0,0,
0,0,0,0,0,0,0,0,0,1232,1238,1238,1238,1238,1238,1238,1238,1238,1248,0,0,0,0,0,0,0,0,0,0,0,0,0,0,1242,1233,0,0,0,0,0,0,0,0,1237,0,0,0,0,0,0,0,0,0,0,0,0,0,0,0,0,0,0,0,0,
0,0,0,0,0,0,0,0,0,1237,0,0,0,0,0,0,0,0,1237,0,0,0,0,0,0,0,0,0,0,0,1232,1238,1238,1233,1237,0,0,0,0,0,0,0,0,1242,1233,0,0,0,0,0,0,0,0,0,0,0,0,0,0,0,0,0,0,0,
0,0,0,0,0,0,0,0,1232,1243,0,0,0,0,0,0,0,0,1242,1238,1233,0,0,0,0,0,0,0,0,1232,1243,0,0,1242,1246,1233,0,1232,1241,0,0,0,0,0,1237,0,0,0,0,0,0,0,0,0,0,0,0,0,0,0,0,0,0,0,
0,0,0,0,0,0,0,0,1237,0,0,0,0,0,0,0,0,0,0,0,1237,0,0,0,0,0,0,0,1232,1243,0,0,0,0,0,1237,0,1237,0,0,0,0,0,0,1237,0,0,0,0,0,0,0,0,0,0,0,0,0,0,0,0,0,0,0,
0,0,0,0,0,0,0,0,1237,0,0,0,0,0,0,0,0,0,0,0,1237,0,0,0,0,0,0,0,1237,0,0,0,0,0,0,1242,1233,1250,0,0,0,0,0,0,1247,1238,1238,1238,1238,1233,0,0,0,0,0,0,0,0,0,0,0,0,0,0,
0,0,0,0,0,0,0,0,1237,0,0,0,0,0,0,0,0,0,0,0,1237,0,0,0,0,0,0,1232,1243,0,0,0,0,0,0,0,1242,1233,0,0,0,0,0,1232,1243,0,0,0,0,1242,1238,1233,0,0,0,0,0,0,0,0,0,0,0,0,
0,0,0,0,0,0,0,0,1237,0,0,0,0,0,0,0,0,0,0,1251,1246,1241,0,0,0,0,0,1237,0,0,0,0,0,0,0,0,0,1242,1236,1233,0,0,0,1237,0,0,0,0,0,0,0,1242,1233,0,0,0,0,0,0,0,0,0,0,0,
0,0,0,0,0,0,0,0,1242,1233,0,0,0,0,0,0,0,0,0,0,0,0,0,0,0,0,0,1237,0,0,0,0,0,0,0,0,0,0,1237,1242,1233,0,1232,1243,0,0,0,0,0,0,0,0,1237,0,0,0,0,0,0,0,0,0,0,0,
0,0,0,0,0,0,0,0,0,1237,0,0,0,0,0,0,0,0,0,0,0,0,0,0,0,0,0,1237,0,0,0,0,0,0,0,0,0,0,1242,1233,1242,1233,1237,0,0,0,0,0,0,0,0,0,1242,1233,0,0,0,0,0,0,0,0,0,0,
0,0,0,0,0,0,0,0,0,1242,1233,0,0,0,0,0,0,0,0,0,0,0,0,0,0,0,0,1237,0,0,0,0,0,0,0,0,0,0,0,1237,0,1242,1248,0,0,0,0,0,0,0,0,0,0,1237,0,0,0,0,0,0,0,0,0,0,
0,0,0,0,0,0,0,0,0,0,1242,1233,0,0,0,0,0,0,0,0,0,0,0,0,0,0,0,1237,0,0,0,0,0,0,0,0,0,0,0,1242,1233,0,1237,0,0,0,0,0,0,0,0,0,0,1237,0,0,0,0,0,0,0,0,0,0,
0,0,0,0,0,0,0,0,0,0,0,1237,0,0,0,0,0,0,0,0,0,0,0,0,0,0,0,1237,0,0,0,0,0,0,0,0,0,0,0,0,1237,0,1237,0,0,0,0,0,0,0,0,0,0,1237,0,0,0,0,0,0,0,0,0,0,
0,0,0,0,0,0,0,0,0,0,0,1242,1233,0,0,0,0,0,0,0,0,0,0,0,0,0,0,1237,0,0,0,0,0,0,0,0,0,0,0,0,1237,0,1237,0,0,0,0,0,0,0,0,0,0,1237,0,0,0,0,0,0,0,0,0,0,
0,0,0,0,0,0,0,0,0,0,0,0,1242,1233,0,0,0,0,0,0,0,0,0,0,0,0,0,1237,0,0,0,0,0,0,0,0,0,0,0,0,1237,0,1237,0,0,0,0,0,0,0,0,0,0,1237,0,0,0,0,0,0,0,0,0,0,
0,0,0,0,0,0,0,0,0,0,0,0,0,1237,0,0,0,0,0,0,0,0,0,0,0,0,0,1237,0,0,0,0,0,0,0,0,0,0,0,0,1237,0,1237,0,0,0,0,0,0,0,0,0,0,1237,0,0,0,0,0,0,0,0,0,0,
0,0,0,0,0,0,0,0,0,0,0,1232,1238,1243,0,0,0,0,0,0,0,0,0,0,0,0,0,1237,0,0,0,0,0,0,0,0,0,0,0,1232,1243,0,1237,0,0,0,0,0,0,0,0,0,0,1237,0,0,0,0,0,0,0,0,0,0,
0,0,0,0,0,0,0,0,1232,1238,1238,1243,0,0,0,0,0,0,0,0,0,0,0,0,0,0,0,1242,1233,0,0,0,0,0,0,0,0,0,0,1237,0,0,1237,0,0,0,0,0,0,0,0,0,0,1237,0,0,0,0,0,0,0,0,0,0,
0,0,0,0,0,0,0,1232,1243,0,0,0,0,0,0,0,0,0,0,0,0,0,0,0,0,0,0,0,1237,0,0,0,0,0,0,0,0,0,1232,1243,0,0,1242,1233,0,0,0,0,0,0,0,0,0,1237,0,0,0,0,0,0,0,0,0,0,
0,0,0,0,0,1232,1238,1243,0,0,0,0,0,0,0,0,0,0,0,0,0,0,0,0,0,0,0,0,1242,1233,0,0,0,0,0,0,1232,1238,1243,0,0,0,0,1237,0,0,0,0,0,0,0,0,1232,1243,0,0,0,0,0,0,0,0,0,0,
1251,1238,1238,1238,1238,1243,0,0,0,0,0,0,0,0,0,0,0,0,0,0,0,0,0,0,0,0,0,0,0,1242,1238,1238,1238,1238,1238,1238,1243,0,0,0,0,0,0,1237,0,0,0,0,0,0,0,0,1237,0,0,0,0,0,0,0,0,0,0,0,
0,0,0,0,0,0,0,0,0,0,0,0,0,0,0,0,0,0,0,0,0,0,0,0,0,0,0,0,0,0,0,0,0,0,0,0,0,0,0,0,0,0,0,1242,1238,1233,0,0,0,0,0,1232,1243,0,0,0,0,0,0,0,0,0,0,0,
0,0,0,0,0,0,0,0,0,0,0,0,0,0,0,0,0,0,0,0,0,0,0,0,0,0,0,0,0,0,0,0,0,0,0,0,0,0,0,0,0,0,0,0,0,1242,1238,1238,1238,1238,1238,1243,0,0,0,0,0,0,0,0,0,0,0,0,
0,0,0,0,0,0,0,0,0,0,0,0,0,0,0,0,0,0,0,0,0,0,0,0,0,0,0,0,0,0,0,0,0,0,0,0,0,0,0,0,0,0,0,0,0,0,0,0,0,0,0,0,0,0,0,0,0,0,0,0,0,0,0,0
</data>
 </layer>
 <objectgroup id="3" name="Objects">
  <object id="1" name="Castle" type="Building" gid="1197" x="896" y="2372" width="768" height="768"/>
  <object id="2" name="Tower" type="Building" gid="1201" x="872" y="2424" width="384" height="384"/>
  <object id="3" name="Tree" type="Vegetation" gid="1203" x="1276" y="3616" width="256" height="256"/>
  <object id="4" name="Tree" type="Vegetation" gid="1204" x="1572" y="3628" width="256" height="256"/>
  <object id="5" name="Tree" type="Vegetation" gid="1202" x="1824" y="3408" width="256" height="256"/>
  <object id="6" name="Mushroom" type="Vegetation" gid="1199" x="256" y="3008" width="64" height="64"/>
  <object id="7" name="Mushroom" type="Vegetation" gid="1200" x="384" y="3008" width="64" height="64"/>
  <object id="8" name="Mushroom" type="Vegetation" gid="1198" x="512" y="3012" width="64" height="64"/>
  <object id="9" name="Rectangle" type="Shape" x="316" y="896" width="140" height="136"/>
  <object id="13" name="Marker" type="Shape" x="640" y="1008">
   <point/>
  </object>
  <object id="14" name="Ellipse" type="Shape" x="832" y="896" width="172" height="128">
   <ellipse/>
  </object>
  <object id="15" name="Polygon" type="Shape" x="1160" y="900">
   <polygon points="0,0 236,0 136,252 128,108 44,172"/>
  </object>
  <object id="16" name="Text" x="224" y="163.063" width="400" height="200">
   <text pixelsize="72" wrap="1">Hello World</text>
  </object>
  <object id="17" name="Tower" type="Building" gid="1201" x="1328" y="2428" width="384" height="384"/>
  <object id="40" gid="1216" x="897.333" y="3264" width="64" height="64"/>
  <object id="41" gid="1217" x="1014.67" y="3272.67" width="73" height="92"/>
  <object id="42" gid="1218" x="1090.67" y="3274" width="73" height="92"/>
  <object id="43" gid="1219" x="893.333" y="3396" width="64" height="64"/>
  <object id="44" gid="1220" x="1212" y="3271.33" width="73" height="92"/>
  <object id="45" gid="1221" x="1278.67" y="3272.67" width="73" height="92"/>
  <object id="46" gid="1222" x="1018.67" y="3384" width="64" height="64"/>
  <object id="47" gid="1224" x="1082.67" y="3388" width="64" height="128"/>
  <object id="48" gid="1225" x="893.333" y="3448" width="64" height="64"/>
  <object id="49" gid="1226" x="1224.33" y="3383.67" width="50" height="50"/>
  <object id="50" gid="1227" x="1287" y="3385" width="50" height="50"/>
  <object id="51" gid="1228" x="1024" y="3521" width="72" height="81"/>
  <object id="52" gid="1229" x="1081.33" y="3521" width="72" height="81"/>
  <object id="54" gid="1223" x="1148" y="3392" width="64" height="128"/>
 </objectgroup>
</map>
